svgs/light/image-polaroid-user.svg

<svg xmlns="http://www.w3.org/2000/svg" viewBox="0 0 448 512"><!--! Font Awesome Pro 6.6.0 by @fontawesome - https://fontawesome.com License - https://fontawesome.com/license (Commercial License) Copyright 2024 Fonticons, Inc. --><path d="M336 384l-32 0-160 0-32 0-80 0 0 32c0 17.7 14.3 32 32 32l320 0c17.7 0 32-14.3 32-32l0-32-80 0zm-1.6-32l81.6 0 0-256c0-17.7-14.3-32-32-32L64 64C46.3 64 32 78.3 32 96l0 256 81.6 0c7.4-36.5 39.7-64 78.4-64l32 0 32 0c38.7 0 71 27.5 78.4 64zm-187.7 0l154.5 0c-6.6-18.6-24.4-32-45.3-32l-64 0c-20.9 0-38.7 13.4-45.3 32zM448 96l0 256 0 16 0 16 0 32c0 35.3-28.7 64-64 64L64 480c-35.3 0-64-28.7-64-64l0-32 0-16 0-16L0 96C0 60.7 28.7 32 64 32l320 0c35.3 0 64 28.7 64 64zM256 192a32 32 0 1 0 -64 0 32 32 0 1 0 64 0zm-32-64a64 64 0 1 1 0 128 64 64 0 1 1 0-128z"/></svg>

<svg xmlns="http://www.w3.org/2000/svg" viewBox="0 0 448 512"><!--! Font Awesome Pro 6.4.0 by @fontawesome - https://fontawesome.com License - https://fontawesome.com/license (Commercial License) Copyright 2023 Fonticons, Inc. --><path d="M336 384H304 144 112 32v32c0 17.7 14.3 32 32 32H384c17.7 0 32-14.3 32-32V384H336zm-1.6-32H416V96c0-17.7-14.3-32-32-32H64C46.3 64 32 78.3 32 96V352h81.6c7.4-36.5 39.7-64 78.4-64h32 32c38.7 0 71 27.5 78.4 64zm-187.7 0H301.3c-6.6-18.6-24.4-32-45.3-32H192c-20.9 0-38.7 13.4-45.3 32zM448 96V352v16 16 32c0 35.3-28.7 64-64 64H64c-35.3 0-64-28.7-64-64V384 368 352 96C0 60.7 28.7 32 64 32H384c35.3 0 64 28.7 64 64zM256 192a32 32 0 1 0 -64 0 32 32 0 1 0 64 0zm-32-64a64 64 0 1 1 0 128 64 64 0 1 1 0-128z"/></svg>
